static/img/kroki/54749fbc76756d9b023ba4e8345efc24.svg

<?xml version="1.0" encoding="us-ascii" standalone="no"?><svg xmlns="http://www.w3.org/2000/svg" xmlns:xlink="http://www.w3.org/1999/xlink" contentStyleType="text/css" height="451px" preserveAspectRatio="none" style="width:371px;height:451px;" version="1.1" viewBox="0 0 371 451" width="371px" zoomAndPan="magnify"><defs/><g><!--class aws_bedrock_agent--><g id="elem_aws_bedrock_agent"><rect codeLine="23" fill="#3D176E" height="39.7891" id="aws_bedrock_agent" rx="2.5" ry="2.5" style="stroke:#000D19;stroke-width:0.5;" width="206" x="7" y="106.79"/><ellipse cx="22" cy="126.6845" fill="#ADD1B2" rx="11" ry="11" style="stroke:#181818;stroke-width:1.0;"/><path d="M24.9688,132.3252 Q24.3906,132.622 23.75,132.7627 Q23.1094,132.9189 22.4063,132.9189 Q19.9063,132.9189 18.5781,131.2783 Q17.2656,129.622 17.2656,126.497 Q17.2656,123.372 18.5781,121.7158 Q19.9063,120.0595 22.4063,120.0595 Q23.1094,120.0595 23.75,120.2158 Q24.4063,120.372 24.9688,120.6689 L24.9688,123.3877 Q24.3438,122.8095 23.75,122.5439 Q23.1563,122.2627 22.5313,122.2627 Q21.1875,122.2627 20.5,123.3408 Q19.8125,124.4033 19.8125,126.497 Q19.8125,128.5908 20.5,129.6689 Q21.1875,130.7314 22.5313,130.7314 Q23.1563,130.7314 23.75,130.4658 Q24.3438,130.1845 24.9688,129.6064 L24.9688,132.3252 Z " fill="#000000"/><text fill="#D9B8FF" font-family="Helvetica" font-size="17" lengthAdjust="spacing" textLength="164" x="41" y="132.5698">aws_bedrock_agent</text></g><!--class aws_bedrock_agent_knowledge_base--><g id="elem_aws_bedrock_agent_knowledge_base"><rect codeLine="26" fill="#3D176E" height="39.7891" id="aws_bedrock_agent_knowledge_base" rx="2.5" ry="2.5" style="stroke:#000D19;stroke-width:0.5;" width="353" x="11.5" y="206.58"/><ellipse cx="26.5" cy="226.4745" fill="#ADD1B2" rx="11" ry="11" style="stroke:#181818;stroke-width:1.0;"/><path d="M29.4688,232.1152 Q28.8906,232.412 28.25,232.5527 Q27.6094,232.7089 26.9063,232.7089 Q24.4063,232.7089 23.0781,231.0683 Q21.7656,229.412 21.7656,226.287 Q21.7656,223.162 23.0781,221.5058 Q24.4063,219.8495 26.9063,219.8495 Q27.6094,219.8495 28.25,220.0058 Q28.9063,220.162 29.4688,220.4589 L29.4688,223.1777 Q28.8438,222.5995 28.25,222.3339 Q27.6563,222.0527 27.0313,222.0527 Q25.6875,222.0527 25,223.1308 Q24.3125,224.1933 24.3125,226.287 Q24.3125,228.3808 25,229.4589 Q25.6875,230.5214 27.0313,230.5214 Q27.6563,230.5214 28.25,230.2558 Q28.8438,229.9745 29.4688,229.3964 L29.4688,232.1152 Z " fill="#000000"/><text fill="#D9B8FF" font-family="Helvetica" font-size="17" lengthAdjust="spacing" textLength="311" x="45.5" y="232.3598">aws_bedrock_agent_knowledge_base</text></g><!--class aws_iam_role--><g id="elem_aws_iam_role"><rect codeLine="29" fill="#3D176E" height="39.7891" id="aws_iam_role" rx="2.5" ry="2.5" style="stroke:#000D19;stroke-width:0.5;" width="157" x="109.5" y="7"/><ellipse cx="124.5" cy="26.8945" fill="#ADD1B2" rx="11" ry="11" style="stroke:#181818;stroke-width:1.0;"/><path d="M127.4688,32.5352 Q126.8906,32.832 126.25,32.9727 Q125.6094,33.1289 124.9063,33.1289 Q122.4063,33.1289 121.0781,31.4883 Q119.7656,29.832 119.7656,26.707 Q119.7656,23.582 121.0781,21.9258 Q122.4063,20.2695 124.9063,20.2695 Q125.6094,20.2695 126.25,20.4258 Q126.9063,20.582 127.4688,20.8789 L127.4688,23.5977 Q126.8438,23.0195 126.25,22.7539 Q125.6563,22.4727 125.0313,22.4727 Q123.6875,22.4727 123,23.5508 Q122.3125,24.6133 122.3125,26.707 Q122.3125,28.8008 123,29.8789 Q123.6875,30.9414 125.0313,30.9414 Q125.6563,30.9414 126.25,30.6758 Q126.8438,30.3945 127.4688,29.8164 L127.4688,32.5352 Z " fill="#000000"/><text fill="#D9B8FF" font-family="Helvetica" font-size="17" lengthAdjust="spacing" textLength="115" x="143.5" y="32.7798">aws_iam_role</text></g><!--class aws_rds_cluster--><g id="elem_aws_rds_cluster"><rect codeLine="32" fill="#3D176E" height="39.7891" id="aws_rds_cluster" rx="2.5" ry="2.5" style="stroke:#000D19;stroke-width:0.5;" width="174" x="31" y="306.37"/><ellipse cx="46" cy="326.2645" fill="#ADD1B2" rx="11" ry="11" style="stroke:#181818;stroke-width:1.0;"/><path d="M48.9688,331.9052 Q48.3906,332.202 47.75,332.3427 Q47.1094,332.4989 46.4063,332.4989 Q43.9063,332.4989 42.5781,330.8583 Q41.2656,329.202 41.2656,326.077 Q41.2656,322.952 42.5781,321.2958 Q43.9063,319.6395 46.4063,319.6395 Q47.1094,319.6395 47.75,319.7958 Q48.4063,319.952 48.9688,320.2489 L48.9688,322.9677 Q48.3438,322.3895 47.75,322.1239 Q47.1563,321.8427 46.5313,321.8427 Q45.1875,321.8427 44.5,322.9208 Q43.8125,323.9833 43.8125,326.077 Q43.8125,328.1708 44.5,329.2489 Q45.1875,330.3114 46.5313,330.3114 Q47.1563,330.3114 47.75,330.0458 Q48.3438,329.7645 48.9688,329.1864 L48.9688,331.9052 Z " fill="#000000"/><text fill="#D9B8FF" font-family="Helvetica" font-size="17" lengthAdjust="spacing" textLength="132" x="65" y="332.1498">aws_rds_cluster</text></g><!--class aws_rds_instance--><g id="elem_aws_rds_instance"><rect codeLine="35" fill="#3D176E" height="39.7891" id="aws_rds_instance" rx="2.5" ry="2.5" style="stroke:#000D19;stroke-width:0.5;" width="188" x="94" y="406.16"/><ellipse cx="109" cy="426.0545" fill="#ADD1B2" rx="11" ry="11" style="stroke:#181818;stroke-width:1.0;"/><path d="M111.9688,431.6952 Q111.3906,431.992 110.75,432.1327 Q110.1094,432.2889 109.4063,432.2889 Q106.9063,432.2889 105.5781,430.6483 Q104.2656,428.992 104.2656,425.867 Q104.2656,422.742 105.5781,421.0858 Q106.9063,419.4295 109.4063,419.4295 Q110.1094,419.4295 110.75,419.5858 Q111.4063,419.742 111.9688,420.0389 L111.9688,422.7577 Q111.3438,422.1795 110.75,421.9139 Q110.1563,421.6327 109.5313,421.6327 Q108.1875,421.6327 107.5,422.7108 Q106.8125,423.7733 106.8125,425.867 Q106.8125,427.9608 107.5,429.0389 Q108.1875,430.1014 109.5313,430.1014 Q110.1563,430.1014 110.75,429.8358 Q111.3438,429.5545 111.9688,428.9764 L111.9688,431.6952 Z " fill="#000000"/><text fill="#D9B8FF" font-family="Helvetica" font-size="17" lengthAdjust="spacing" textLength="146" x="128" y="431.9398">aws_rds_instance</text></g><!--link aws_bedrock_agent to aws_bedrock_agent_knowledge_base--><g id="link_aws_bedrock_agent_aws_bedrock_agent_knowledge_base"><path codeLine="38" d="M125.41,147.01 C139.08,164.15 155.2192,184.3789 168.8792,201.5089 " fill="none" id="aws_bedrock_agent-to-aws_bedrock_agent_knowledge_base" style="stroke:#1A83AF;stroke-width:2.0;"/><polygon fill="#1A83AF" points="172.62,206.2,170.1362,196.6695,169.5027,202.2908,163.8814,201.6573,172.62,206.2" style="stroke:#1A83AF;stroke-width:2.0;"/></g><!--link aws_bedrock_agent_knowledge_base to aws_rds_cluster--><g id="link_aws_bedrock_agent_knowledge_base_aws_rds_cluster"><path codeLine="39" d="M174.17,246.8 C161.9,263.94 147.5507,283.9699 135.2907,301.1099 " fill="none" id="aws_bedrock_agent_knowledge_base-to-aws_rds_cluster" style="stroke:#1A83AF;stroke-width:2.0;"/><polygon fill="#1A83AF" points="131.8,305.99,140.2894,300.997,134.7089,301.9233,133.7826,296.3428,131.8,305.99" style="stroke:#1A83AF;stroke-width:2.0;"/></g><!--link aws_bedrock_agent_knowledge_base to aws_rds_instance--><g id="link_aws_bedrock_agent_knowledge_base_aws_rds_instance"><path codeLine="40" d="M199.32,246.8 C207.72,262.32 218.47,284.97 223,306.37 C226.67,323.67 226.67,328.86 223,346.16 C218.47,367.56 210.5759,384.9333 202.1759,400.4533 " fill="none" id="aws_bedrock_agent_knowledge_base-to-aws_rds_instance" style="stroke:#1A83AF;stroke-width:2.0;"/><polygon fill="#1A83AF" points="199.32,405.73,207.1217,399.7189,201.7,401.3327,200.0861,395.911,199.32,405.73" style="stroke:#1A83AF;stroke-width:2.0;"/></g><!--link aws_iam_role to aws_bedrock_agent--><g id="link_aws_iam_role_aws_bedrock_agent"><path codeLine="41" d="M172.59,47.22 C158.92,64.36 142.7808,84.5889 129.1208,101.7189 " fill="none" id="aws_iam_role-to-aws_bedrock_agent" style="stroke:#1A83AF;stroke-width:2.0;"/><polygon fill="#1A83AF" points="125.38,106.41,134.1186,101.8673,128.4973,102.5008,127.8638,96.8795,125.38,106.41" style="stroke:#1A83AF;stroke-width:2.0;"/></g><!--link aws_iam_role to aws_bedrock_agent_knowledge_base--><g id="link_aws_iam_role_aws_bedrock_agent_knowledge_base"><path codeLine="42" d="M201.77,47.22 C211.8,62.55 224.55,84.96 230,106.79 C234.28,123.95 234.28,129.43 230,146.58 C224.55,168.41 215.085,185.7992 205.055,201.1292 " fill="none" id="aws_iam_role-to-aws_bedrock_agent_knowledge_base" style="stroke:#1A83AF;stroke-width:2.0;"/><polygon fill="#1A83AF" points="201.77,206.15,210.0447,200.8087,204.5075,201.966,203.3503,196.4287,201.77,206.15" style="stroke:#1A83AF;stroke-width:2.0;"/></g><!--link aws_rds_cluster to aws_rds_instance--><g id="link_aws_rds_cluster_aws_rds_instance"><path codeLine="43" d="M131.83,346.59 C144.1,363.73 158.4493,383.7599 170.7093,400.8999 " fill="none" id="aws_rds_cluster-to-aws_rds_instance" style="stroke:#1A83AF;stroke-width:2.0;"/><polygon fill="#1A83AF" points="174.2,405.78,172.2174,396.1328,171.2911,401.7133,165.7106,400.787,174.2,405.78" style="stroke:#1A83AF;stroke-width:2.0;"/></g><!--SRC=[dP9HIyCm4CVV-oa2Unwi3jts8jJ1q9SXpZUHSaqkNMYRZ4jccU9tTtMRn6PhqTVx_tBtkoDh9P1XjN4xLc6L8Td85aflWA1Y2P6fvwOqn0PIWXnFsk72QDSBBA52Te_b6ph5eKqyhnKlD5hBhhpe3dYHazbgSMZl2BJTHwYTHyrBi3PnZbIsTUZ9Y5asbR9DjfiEnYAUt6206H98HsGq6eburaPwHtNk_KEir3kos3_QqZWCD8CHtrIdPKDuai6Yf_oYuoC8eNJEhhtQqy69DDAl-ceDmjGDBQ6q_XZhaD2utGRdmLOucmevEGi_N88ZtfoEGMtJ30KPNgIGx_y4-uYYpqjXMcXJboXoJ3Ems6OLL2cPCgYJi2aljutLkKXfwq3puxFGQFWoY9FfE5cy3czxdQ9UwQ2Tf_VFrwSDebzNwFR-2tjkH_-etL9V]--></g></svg>

<svg xmlns="http://www.w3.org/2000/svg" width="371" height="451" viewBox="0 0 371 451"><rect width="206" height="39.789" x="7" y="106.79" fill="#3D176E" rx="2.5" ry="2.5" style="stroke:#000d19;stroke-width:.5"/><circle cx="22" cy="126.684" r="11" fill="#ADD1B2" style="stroke:#181818;stroke-width:1"/><path d="M24.969 132.325q-.578.297-1.219.438-.64.156-1.344.156-2.5 0-3.828-1.64-1.312-1.657-1.312-4.782t1.312-4.781q1.328-1.656 3.828-1.656.703 0 1.344.156.656.156 1.219.453v2.719q-.625-.579-1.219-.844-.594-.281-1.219-.281-1.343 0-2.031 1.078-.687 1.062-.687 3.156t.687 3.172q.688 1.062 2.031 1.062.625 0 1.219-.265.594-.281 1.219-.86z"/><text x="41" y="132.57" fill="#D9B8FF" font-family="Helvetica" font-size="17" textLength="164">aws_bedrock_agent</text><rect width="353" height="39.789" x="11.5" y="206.58" fill="#3D176E" rx="2.5" ry="2.5" style="stroke:#000d19;stroke-width:.5"/><circle cx="26.5" cy="226.475" r="11" fill="#ADD1B2" style="stroke:#181818;stroke-width:1"/><path d="M29.469 232.115q-.578.297-1.219.438-.64.156-1.344.156-2.5 0-3.828-1.64-1.312-1.657-1.312-4.782t1.312-4.781q1.328-1.656 3.828-1.656.703 0 1.344.156.656.156 1.219.453v2.719q-.625-.578-1.219-.844-.594-.281-1.219-.281-1.343 0-2.031 1.078-.687 1.062-.687 3.156t.687 3.172q.688 1.062 2.031 1.062.625 0 1.219-.265.594-.281 1.219-.86z"/><text x="45.5" y="232.36" fill="#D9B8FF" font-family="Helvetica" font-size="17" textLength="311">aws_bedrock_agent_knowledge_base</text><rect width="157" height="39.789" x="109.5" y="7" fill="#3D176E" rx="2.5" ry="2.5" style="stroke:#000d19;stroke-width:.5"/><circle cx="124.5" cy="26.895" r="11" fill="#ADD1B2" style="stroke:#181818;stroke-width:1"/><path d="M127.469 32.535q-.578.297-1.219.438-.64.156-1.344.156-2.5 0-3.828-1.64-1.312-1.657-1.312-4.782t1.312-4.781q1.328-1.656 3.828-1.656.703 0 1.344.156.656.156 1.219.453v2.719q-.625-.578-1.219-.844-.594-.281-1.219-.281-1.344 0-2.031 1.078-.687 1.062-.687 3.156t.687 3.172q.688 1.062 2.031 1.062.625 0 1.219-.265.594-.281 1.219-.86z"/><text x="143.5" y="32.78" fill="#D9B8FF" font-family="Helvetica" font-size="17" textLength="115">aws_iam_role</text><rect width="174" height="39.789" x="31" y="306.37" fill="#3D176E" rx="2.5" ry="2.5" style="stroke:#000d19;stroke-width:.5"/><circle cx="46" cy="326.264" r="11" fill="#ADD1B2" style="stroke:#181818;stroke-width:1"/><path d="M48.969 331.905q-.578.297-1.219.438-.64.156-1.344.156-2.5 0-3.828-1.64-1.312-1.657-1.312-4.782t1.312-4.781q1.328-1.656 3.828-1.656.703 0 1.344.156.656.156 1.219.453v2.719q-.625-.579-1.219-.844-.594-.281-1.219-.281-1.343 0-2.031 1.078-.687 1.062-.687 3.156t.687 3.172q.688 1.062 2.031 1.062.625 0 1.219-.265.594-.281 1.219-.86z"/><text x="65" y="332.15" fill="#D9B8FF" font-family="Helvetica" font-size="17" textLength="132">aws_rds_cluster</text><rect width="188" height="39.789" x="94" y="406.16" fill="#3D176E" rx="2.5" ry="2.5" style="stroke:#000d19;stroke-width:.5"/><circle cx="109" cy="426.055" r="11" fill="#ADD1B2" style="stroke:#181818;stroke-width:1"/><path d="M111.969 431.695q-.578.297-1.219.438-.64.156-1.344.156-2.5 0-3.828-1.64-1.312-1.657-1.312-4.782t1.312-4.781q1.328-1.656 3.828-1.656.703 0 1.344.156.656.156 1.219.453v2.719q-.625-.578-1.219-.844-.594-.281-1.219-.281-1.344 0-2.031 1.078-.687 1.062-.687 3.156t.687 3.172q.688 1.062 2.031 1.062.625 0 1.219-.265.594-.281 1.219-.86z"/><text x="128" y="431.94" fill="#D9B8FF" font-family="Helvetica" font-size="17" textLength="146">aws_rds_instance</text><path fill="none" d="M125.41 147.01c13.67 17.14 29.81 37.369 43.47 54.499" style="stroke:#1a83af;stroke-width:2"/><path fill="#1A83AF" d="m172.62 206.2-2.484-9.53-.633 5.62-5.622-.633z" style="stroke:#1a83af;stroke-width:2"/><path fill="none" d="M174.17 246.8c-12.27 17.14-26.62 37.17-38.88 54.31" style="stroke:#1a83af;stroke-width:2"/><path fill="#1A83AF" d="m131.8 305.99 8.49-4.993-5.581.926-.926-5.58z" style="stroke:#1a83af;stroke-width:2"/><path fill="none" d="M199.32 246.8c8.4 15.52 19.15 38.17 23.68 59.57 3.67 17.3 3.67 22.49 0 39.79-4.53 21.4-12.424 38.773-20.824 54.293" style="stroke:#1a83af;stroke-width:2"/><path fill="#1A83AF" d="m199.32 405.73 7.802-6.011-5.422 1.614-1.614-5.422z" style="stroke:#1a83af;stroke-width:2"/><path fill="none" d="M172.59 47.22c-13.67 17.14-29.81 37.369-43.47 54.499" style="stroke:#1a83af;stroke-width:2"/><path fill="#1A83AF" d="m125.38 106.41 8.739-4.543-5.622.634-.633-5.622z" style="stroke:#1a83af;stroke-width:2"/><path fill="none" d="M201.77 47.22c10.03 15.33 22.78 37.74 28.23 59.57 4.28 17.16 4.28 22.64 0 39.79-5.45 21.83-14.915 39.22-24.945 54.55" style="stroke:#1a83af;stroke-width:2"/><path fill="#1A83AF" d="m201.77 206.15 8.275-5.341-5.537 1.157-1.158-5.537z" style="stroke:#1a83af;stroke-width:2"/><path fill="none" d="M131.83 346.59c12.27 17.14 26.62 37.17 38.88 54.31" style="stroke:#1a83af;stroke-width:2"/><path fill="#1A83AF" d="m174.2 405.78-1.983-9.647-.926 5.58-5.58-.926z" style="stroke:#1a83af;stroke-width:2"/></svg>
